X: 125
T: Le Fete da Village
%R: reel, march
B: Chas & Sam Thompson "Twenty Four Country Dances for the Year 1778", London 1778, p.63 #1
F: http://www.vwml.org/browse/browse-collections-dance-tune-books/browse-thompsons1778#
Z: 2014 John Chambers <jc:trillian.mit.edu> (added dance description)
M: 2/4
L: 1/16
K: E
% - - - - - - - - - - - - - - - - - - - - - - - - - - - - -
|:\
b4 {a}g2fg | a2g2 f4 |\
g2e2e2e2 | fedc B4 |\
{eg}b4 {a}g2fg | a2g2 f4 |\
g2b2 e2fd | e4 E4 :|
|:\
GBeB Acec | GBeB Acec |\
[e2B2G2]b2a2g2 | (fefg) f4 |\
GBeB Acec | GBeB Acec |\
e2g2f2b2 | e4 E4 :|
% - - - - - - - - - - Dance description - - - - - - - - - -
%%begintext align
%% Right hands across left hands back again .|. Change
%% Sides and back again :|. lead down the middle up
%% again and cast off .|: Allemand with your Partner :|:
%%endtext

%%sep 1 1 500
%%sep 1 1 500
